X:1
T:Let ev'ry voice - Webbe
T:#
%%score [ 1 2 3 ]
L:1/8
Q:1/4=140
M:2/2
K:Eb
V:1 treble nm="Alto" snm="A"
V:2 treble-8 nm="Tenor" snm="T"
V:3 bass nm="Bass" snm="B"
V:1
"^Let ev'ry voice Jehovah's glory sing""^Samuel Webbe \n(1740-1816)" E4 | F6 F2 | E2 E2 A4- |: %3
w: Let|ev'- ry|voice Je- ho\-|
 A4 G4 | A6 F2 | !fermata!G4 z4 |[M:2/2] z2 F2 B4- | B4 A4 | G3 G G2 c2 | F6 B2 | E4 z4 |1 z4 E4 | %12
w: * vah's|glo- ry|sing,|And own|* the|pow'r of heav'n's im-|mor- tal|King.|Let|
 F6 F2 | E2 E2 A4 :|2 z8 | z8 | z8 |] %17
w: ev'- ry|voice Je- ho\-||||
V:2
 z4 | z4 B4 | c6 c2 |: B2 B2 e4- | e4 d4 | !fermata!e6 c2 |[M:2/2][K:treble-8] d4 z4 | z2 c2 f4- | %8
w: |Let|ev'- ry|voice Je- ho\-|* vah's|glo- ry|sing,|And own|
 f4 e4 | d3 d d2 g2 | c6 f2 |1 B4 z4 | z4 B4 | c6 c2 :|2 B4 z4 | z8 | z8 |] %17
w: * the|pow'r of heav'n's im-|mor- tal|King.|Let|ev'- ry|King.|||
V:3
 z4 | z8 | z8 |: z4 E,4 | F,6 F,2 | !fermata!E,2 E,2 A,4- |[M:2/2] A,4 G,4 | A,6 F,2 | G,4 z4 | %9
w: |||Let|ev'- ry|voice Je- ho\-|* vah's|glo- ry|sing,|
 z2 F,2 B,4- | B,4 A,4 |1 G,3 G, G,2 C2 | F,6 B,2 | E,4 z4 :|2 G,3 G, G,2 C2 | F,6 B,2 | E,4 z4 |] %17
w: And own|* the|pow'r of heav'n's im-|mor- tal|King.|pow'r of heav'n's im-|mor- tal|King.|

